X:398
T:B398-  Rogero
Q:1/4=120
L:1/4
M:C|
K:C
c/d/|eeff|e3/2f/eg|fedc|B3/2c/BB/c/|\
ddcB/A/|B3/4A/4 B/c/Be|dccB|c3/2c/c|]

